src/pos-icons/arrow-collapse-horizontal.svg

<svg height="24" viewBox="0 0 24 24" width="24" xmlns="http://www.w3.org/2000/svg"><path d="m13 20v-16h2.03v16zm-3 0v-16h2.03v16zm-5-12 4.03 4-4.03 4v-3h-3v-2h3zm15 8-4-4 4-4v3h3v2h-3z"/></svg>

<?xml version="1.0" encoding="UTF-8"?><!DOCTYPE svg PUBLIC "-//W3C//DTD SVG 1.1//EN" "http://www.w3.org/Graphics/SVG/1.1/DTD/svg11.dtd"><svg xmlns="http://www.w3.org/2000/svg" xmlns:xlink="http://www.w3.org/1999/xlink" version="1.1" id="mdi-arrow-collapse-horizontal" width="24" height="24" viewBox="0 0 24 24"><path d="M13,20V4H15.03V20H13M10,20V4H12.03V20H10M5,8L9.03,12L5,16V13H2V11H5V8M20,16L16,12L20,8V11H23V13H20V16Z" /></svg>
